X:1
T:Dance of the Sugar Plum Fairy (theme)
C:Pyotr Ilyich Tchaikovsky
M:2/4
L:1/16
Q:1/4=126
K:Em
e ^d e B d c B G | c B A F G2 E2 | e ^d e B d c B G | c B A F G2 E2 | e ^d e B d c B G | c B A F G2 E2 | e ^d e B d c B G | E8 |]
